images_sukapura_svg/cmd/32/italic.svg

<svg viewBox="0 0 32 32" xmlns="http://www.w3.org/2000/svg"><path d="m15.342588 30h-3.725335l5.040159-27.9475624h3.725334z" fill="#69696e"/><path d="m13 2c-.554 0-1 .446-1 1s.446117.9886054 1 1h3.3125 3.042969 3.644531c.554 0 1-.446 1-1s-.446-1-1-1zm-4.1367186 26.027344c-.4859174.06886-.8632813.467131-.8632813.972656 0 .554.446 1 1 1h9.9999999c.554 0 1-.446 1-1 0-.505291-.377695-.903508-.863281-.972656z" fill="#696969" opacity=".99"/></svg>

<?xml version="1.0" encoding="UTF-8" standalone="no"?>
<svg
   xmlns:dc="http://purl.org/dc/elements/1.1/"
   xmlns:cc="http://creativecommons.org/ns#"
   xmlns:rdf="http://www.w3.org/1999/02/22-rdf-syntax-ns#"
   xmlns:svg="http://www.w3.org/2000/svg"
   xmlns="http://www.w3.org/2000/svg"
   xmlns:sodipodi="http://sodipodi.sourceforge.net/DTD/sodipodi-0.dtd"
   xmlns:inkscape="http://www.inkscape.org/namespaces/inkscape"
   viewBox="0 0 32 32"
   version="1.1"
   id="svg6"
   sodipodi:docname="italic.svg"
   inkscape:export-filename="/home/rizmut/Documents/Rizmut/Github/libreoffice-style-sukapura/images_sukapura/cmd/32/italic.png"
   inkscape:export-xdpi="96"
   inkscape:export-ydpi="96"
   inkscape:version="0.92.3 (2405546, 2018-03-11)">
  <metadata
     id="metadata12">
    <rdf:RDF>
      <cc:Work
         rdf:about="">
        <dc:format>image/svg+xml</dc:format>
        <dc:type
           rdf:resource="http://purl.org/dc/dcmitype/StillImage" />
      </cc:Work>
    </rdf:RDF>
  </metadata>
  <defs
     id="defs10" />
  <sodipodi:namedview
     pagecolor="#ffffff"
     bordercolor="#666666"
     borderopacity="1"
     objecttolerance="10"
     gridtolerance="10"
     guidetolerance="10"
     inkscape:pageopacity="0"
     inkscape:pageshadow="2"
     inkscape:window-width="1366"
     inkscape:window-height="692"
     id="namedview8"
     showgrid="true"
     inkscape:zoom="7.375"
     inkscape:cx="4.5760002"
     inkscape:cy="8.8279938"
     inkscape:window-x="0"
     inkscape:window-y="0"
     inkscape:window-maximized="1"
     inkscape:current-layer="svg6"
     inkscape:snap-smooth-nodes="true">
    <inkscape:grid
       type="xygrid"
       id="grid822" />
  </sodipodi:namedview>
  <g
     aria-label="I"
     style="font-style:normal;font-weight:normal;font-size:40.79938507px;line-height:1.25;font-family:sans-serif;letter-spacing:0px;word-spacing:0px;fill:#696969;fill-opacity:1;stroke:none;stroke-width:1.01998472"
     id="text826">
    <path
       d="M 15.342588,30 H 11.617253 L 16.657412,2.0524376 h 3.725334 z"
       style="font-style:italic;font-variant:normal;font-weight:normal;font-stretch:normal;font-family:Roboto;-inkscape-font-specification:'Roboto Italic';fill:#69696e;fill-opacity:1;stroke-width:1.01998472"
       id="path1375"
       inkscape:connector-curvature="0"
       sodipodi:nodetypes="ccccc" />
  </g>
  <path
     style="opacity:0.98999999;fill:#696969"
     d="m 13,2 c -0.554,0 -1,0.446 -1,1 0,0.554 0.446117,0.9886054 1,1 H 16.3125 19.355469 23 C 23.554,4 24,3.554 24,3 24,2.446 23.554,2 23,2 Z M 8.8632814,28.027344 C 8.377364,28.096204 8.0000001,28.494475 8.0000001,29 c 0,0.554 0.446,1 1,1 H 19 c 0.554,0 1,-0.446 1,-1 0,-0.505291 -0.377695,-0.903508 -0.863281,-0.972656 z"
     id="path4"
     inkscape:connector-curvature="0"
     sodipodi:nodetypes="sssccsssscsssscc" />
</svg>
